vendor/shopware/storefront/Resources/app/storefront/dist/assets/icon/default/speech-bubbles.svg

<svg xmlns="http://www.w3.org/2000/svg" width="24" height="24" viewBox="0 0 24 24">
  <path fill="#758CA3" fill-rule="evenodd" d="M8,14 L6.35757692,14 L3.26815925,16.5333227 C2.41403126,17.2337077 1.15384949,17.1090744 0.453464477,16.2549465 C0.160245796,15.8973627 8.8817842e-16,15.4492192 8.8817842e-16,14.9867872 L0,6 C-2.77555756e-16,3.23857625 2.23857625,1 5,1 L11,1 C13.7614237,1 16,3.23857625 16,6 L16,7 L19,7 C21.7614237,7 24,9.23857625 24,12 L24,20.9867872 C24,21.4492192 23.8397542,21.8973627 23.5465355,22.2549465 C22.8461505,23.1090744 21.5859687,23.2337077 20.7318408,22.5333227 L17.6424231,20 L13,20 C10.2385763,20 8,17.7614237 8,15 L8,14 Z M8,12 C8,9.23857625 10.2385763,7 13,7 L14,7 L14,6 C14,4.34314575 12.6568542,3 11,3 L5,3 C3.34314575,3 2,4.34314575 2,6 L2,14.9867872 L5.64242308,12 L8,12 Z M14,9 L13,9 C11.3431458,9 10,10.3431458 10,12 L10,15 C10,16.6568542 11.3431458,18 13,18 L18.3575769,18 L22,20.9867872 L22,12 C22,10.3431458 20.6568542,9 19,9 L16,9 L14,9 Z"/>
</svg>

<svg xmlns="http://www.w3.org/2000/svg" width="24" height="24" viewBox="0 0 24 24"><path fill="#758CA3" fill-rule="evenodd" d="M8 14H6.3576l-3.0894 2.5333c-.8542.7004-2.1144.5758-2.8147-.2784A2 2 0 0 1 0 14.9868V6c0-2.7614 2.2386-5 5-5h6c2.7614 0 5 2.2386 5 5v1h3c2.7614 0 5 2.2386 5 5v8.9868a2 2 0 0 1-.4535 1.2681c-.7003.8542-1.9605.9788-2.8147.2784L17.6424 20H13c-2.7614 0-5-2.2386-5-5v-1zm0-2c0-2.7614 2.2386-5 5-5h1V6c0-1.6569-1.3431-3-3-3H5C3.3431 3 2 4.3431 2 6v8.9868L5.6424 12H8zm6-3h-1c-1.6569 0-3 1.3431-3 3v3c0 1.6569 1.3431 3 3 3h5.3576L22 20.9868V12c0-1.6569-1.3431-3-3-3h-5z"/></svg>
